!!!OTL: T&uuml;rmerlied (Band 1), S. 209
!!!id: P0848
**kern
*clefG2
*k[b-]
*F:
{4c
=1
4f
8a
8a
4g
4cc
=2
8.a
16g
8a
8g
4f}
=3
{8f
8a
=4
4cc
4cc
4dd
4cc
=5
4b-
4cc
4a}
=6
{8f
8a
=7
4cc
8cc
8cc
4cc
8dd
8cc
=8
8b-
16f
16cc
16b-
16a
16f
8b-
8cc
4dd}
=9
{4cc
=10
4a
8a
8a
4cc
8b-
8a
=11
8a
8g
8g
8g
4g}
=12
{8f
8g
=13
4a
8g
8a
4b-
4dd
=14
2cc
4dd
4cc
=15
4b-
4cc
4a}
==
*-
!!!minrhy: 16
!!!meters: 4/4 ]  ZZ[5
!!!cut: T&uuml;rmerlied (Band 1), S. 209
!!!reg: Lothringen
!!!trd: PINCK, Louis: Verklingende Weisen, Bd 1, Metz 1928
!!!rhy1: X__  X__X_X_X__X__  X_.XX_X_X__
!!!rhy2: X_X_  X__X__X__X__  X__X__X__
!!!key: P0848  16  F 4/4 ]  ZZ[5
!!!mod: SECHSTONSKALA DUR ?]  AMBITUS[9
!!!kad: 13623
!!!akz: 1231_5643_5546_3532_345643_
!!!fot: 'a__b__c__bs"as"
!!!for: 'a__b__c__d__e__
!!!fok: '^a_^a_~a_\__^a_
!! PHRAS[AUFTAKTIG]
!!!fkt: Nachtw&auml;chterlied, Liebe, Ehre, Beischlaf, Standesunterschied
!! LOTH VKL
!! PR[34] 2K[3] 2G[19] 3K[3] 3G[0] 4A[6] 4Ü[0] 5A[0] 6K[0] 6G[0]
!! 7K[0] 7G[0] 8A[0] MEHR[0] SI[31] ABS[32] SR[22] SP[9]
!! ST[14] 2k[9] 2g[22] 3k[0] 3g[3] 4d[0] 4ü[0] 5d[0] 6k[0] 6g[0]
!! 7k[0] 7g[0] 8d[0] mehr[0] si[34] dm[-3] sr[31] sp[3]
!! 1F[73] 2F[27] 3F[0] 4F[0] LF[0] 2P[0] 3P[0] 4P[0] TRI[0] DF[2] AB[33]
!! TF[0] U3K[0] U3[0] U4[0] U4Ü[0] U5[9] U6K[0] U6[0] U7K[0] U7[6]
!! N1[27] N2K[0] N2[24] N3K[0] N3[15] N4[9] N4Ü[0] N5[9] N6K[0] N6[0]
!!!n7k: 0] N7[0] O1[0] O2K[0] O2[0] O3K[0] O3[0] HÖ[0
!!!RNB: symbol: &auml;      = a umlaut  (UTF-8: Å„)
!!!RNB: symbol: &uuml;  = u umlaut (UTF-8: Ã¼)
